X: 37697
T: Social Gallon, The
R: reel
M: 4/4
K: Fmajor
CB,|A,CFG A~c3|dcde fcAF|DFGA BAGF|EFGE CBAG|
FCFG A~c3|dcde ~f3 g|afge fdgf|ecBG cABG||
F/G/F EF CFAc|dcde fcAF|D ~B3 BAGF|EdcB AGFE|
~F3 G A ~c3|dfeg fAfg|afge fdgf|ecBG F2 EF||
~A3B cABG|AFGE FDCB,|A,CFG A~F3|FdcA GABc|
Ac{d}cA dAcA|BGAF GFDF|C~F3 DFCF|EFGE ~F3 G||
AFcF dFcF|BFAF GFDF|C~F3 CFAc|dcAF GABc|
~f3 g afge|fdcA GFDF|C~F3 DFCF|EFGE F2||

